X: 846
T: Corney is coming
C: anon.
O: Ireland
B: Francis O'Neill: "The Dance Music of Ireland" (1907) no. 762
R: Reel
Z: Transcribed by Frank Nordberg - http://www.musicaviva.com
F: http://www.musicaviva.com/abc/tunes/ireland/oneill-1001/oneill-1001-076
2.abc
M: C|
L: 1/8
K: D
c|Add(c de)f(d|c)AGF E(FGE)|Ddd(c de)f(a|g)ece fdec|Add(c de)fd|c(AGF) EF
GE|Ddd(c de)f(a|g)ec(d e)dd||
c|d(efg) afd(B|c)de(f g)ecA|d(efg) agf(a|g)ecd edd(f|a)fd(f a)fd(f|g)ec(e
 g)fge|d(efg) aba(f|g)ec(d e)dd|]
W:
W:
W: From Musica Viva - http://www.musicaviva.com
W: the Internet center for free sheet music downloads.


